static/assets/head_icons_png/man/bizi/1005512.svg

<svg xmlns="http://www.w3.org/2000/svg" width="16" height="10"><g><radialGradient id="a" gradientUnits="userSpaceOnUse" gradientTransform="matrix(.00232 .00116 -.0008 .00525 13.75 5.9)" spreadMethod="pad" cx="0" cy="0" r="819.2" fx="0" fy="0"><stop offset="0" stop-color="#fff" stop-opacity=".314"/><stop offset="1" stop-color="#fff" stop-opacity="0"/></radialGradient><path d="M15.2 4.25q.5.8.4 1.75-.15.95-.85 2.05l-1.4 1.15q-.75.2-1.2-.65-.55-.85-.4-1.85.05-.95.85-2 .75-1.1 1.4-1.25.65-.05 1.2.8" fill="url(#a)"/><radialGradient id="b" gradientUnits="userSpaceOnUse" gradientTransform="matrix(.00209 -.00053 .00063 .0033 1.6 6.1)" spreadMethod="pad" cx="0" cy="0" r="819.2" fx="0" fy="0"><stop offset="0" stop-color="#fff" stop-opacity=".263"/><stop offset="1" stop-color="#fff" stop-opacity="0"/></radialGradient><path d="M2.5 3.8q.65.7.8 1.55.2.85-.15 1.95L2.2 8.45q-.55.15-1.25-.6Q.2 7.1.05 6.3q-.15-.9.2-1.9.4-1.05.95-1.2.6-.1 1.3.6" fill="url(#b)"/><radialGradient id="c" gradientUnits="userSpaceOnUse" gradientTransform="matrix(.00072 .00003 .0001 .00276 7.85 3.7)" spreadMethod="pad" cx="0" cy="0" r="819.2" fx="0" fy="0"><stop offset=".314" stop-color="#fff" stop-opacity=".431"/><stop offset="1" stop-color="#fff" stop-opacity="0"/></radialGradient><path d="M8.1 2.15l.2 1.6-.05 1.55-.1.35-.05.05-.2.25-.2-.3-.15-.35-.15-1.6.1-1.6q.1-.65.3-.6l.3.65" fill="url(#c)"/><radialGradient id="d" gradientUnits="userSpaceOnUse" gradientTransform="translate(8.1 9.3) scale(.00189)" spreadMethod="pad" cx="0" cy="0" r="819.2" fx="0" fy="0"><stop offset="0" stop-color="#f39b61"/><stop offset="1" stop-color="#f8be98"/></radialGradient><path d="M8.55 5.4L8.5 3.75q-.05-1.1.55-2.9.6-1.8.15.2-.5 2-.25 3.4l.4 1.75-.8-.8" fill="url(#d)"/><radialGradient id="e" gradientUnits="userSpaceOnUse" gradientTransform="rotate(2.858 -230.237 291.47) scale(.00055)" spreadMethod="pad" cx="0" cy="0" r="819.2" fx="0" fy="0"><stop offset=".314" stop-color="#fff" stop-opacity=".431"/><stop offset="1" stop-color="#fff" stop-opacity="0"/></radialGradient><path d="M8.15 6.4l.15.35-.2.3-.3.1L7.5 7l-.1-.3.1-.3.35-.1.3.1" fill="url(#e)"/><radialGradient id="f" gradientUnits="userSpaceOnUse" gradientTransform="translate(7.95 8.95) scale(.00189)" spreadMethod="pad" cx="0" cy="0" r="819.2" fx="0" fy="0"><stop offset="0" stop-color="#f39b61"/><stop offset="1" stop-color="#f8be98"/></radialGradient><path d="M8.55 5.4l.8.8.25 1.5-.4.4-.35.25-.5.35-.85.15-1.25-.6-.15-.1q-.2-.45.2-.55.35-.15.75 0l.75.1.6-.35q.35-.3.15-1.95M7.7 8.35v.05h-.05l-.15-.05v.05l.3.05h.15l.15-.05v-.1l.2-.2h.1l.1-.05v.05l.05-.05h.35l.1-.1V7.9l-.15-.1-.2.1-.1.05-.3.1-.05.05-.15.2-.2.1-.15-.05m-.55-.1h.1l.15.1h.05l-.1-.1L7 8l-.15-.1-.35-.05-.15.15H6.3l.6.15.2.05.05.05" fill="url(#f)"/><path d="M8.5 8.05l-.1.05h-.1l-.2.2v.1l-.15.05H7.8l-.3-.05v-.05l.15.05h.2l.2-.1.15-.2.05-.05.3-.1.1-.05.2-.1.15.1v.05l-.1.1H8.5m-1.1.3h.05-.05l-.15-.1h-.1l-.2-.1H6.9L6.3 8h.05l.15-.15.35.05L7 8l.35.25.05.1" fill="#823909"/><radialGradient id="g" gradientUnits="userSpaceOnUse" gradientTransform="matrix(.00198 -.00037 .00067 .0034 8.85 3.7)" spreadMethod="pad" cx="0" cy="0" r="819.2" fx="210473" fy="0"><stop offset=".337" stop-color="#f9c29f"/><stop offset="1" stop-color="#fedec1" stop-opacity="0"/></radialGradient><path d="M10.95 4.25q0 .55-1.1 1-.35.15-.6.85l-.05-.05-.35-2.1.05-2.8.05.4-.05-.4q.75 1.85 1.55 2.2l.4.25.1.65" fill="url(#g)"/></g></svg>

<?xml version="1.0" encoding="utf-8"?>
<svg version="1.1" id="Layer_1"
xmlns="http://www.w3.org/2000/svg"
xmlns:xlink="http://www.w3.org/1999/xlink"
xmlns:author="http://www.sothink.com"
width="16px" height="10px"
xml:space="preserve">
<g id="449" transform="matrix(1, 0, 0, 1, 0, 0)">
<radialGradient
id="RadialGradID_3967" gradientUnits="userSpaceOnUse" gradientTransform="matrix(0.00231934, 0.00115967, -0.000793457, 0.00524902, 13.75, 5.9)" spreadMethod ="pad" cx="0" cy="0" r="819.2" fx="0" fy="0" >
<stop  offset="0"  style="stop-color:#FFFFFF;stop-opacity:0.313725" />
<stop  offset="1"  style="stop-color:#FFFFFF;stop-opacity:0" />
</radialGradient>
<path style="fill:url(#RadialGradID_3967) " d="M15.2,4.25Q15.7 5.05 15.6 6Q15.45 6.95 14.75 8.05L13.35 9.2Q12.6 9.4 12.15 8.55Q11.6 7.7 11.75 6.7Q11.8 5.75 12.6 4.7Q13.35 3.6 14 3.45Q14.65 3.4 15.2 4.25" />
<radialGradient
id="RadialGradID_3968" gradientUnits="userSpaceOnUse" gradientTransform="matrix(0.00209045, -0.000534058, 0.00062561, 0.0032959, 1.6, 6.1)" spreadMethod ="pad" cx="0" cy="0" r="819.2" fx="0" fy="0" >
<stop  offset="0"  style="stop-color:#FFFFFF;stop-opacity:0.262745" />
<stop  offset="1"  style="stop-color:#FFFFFF;stop-opacity:0" />
</radialGradient>
<path style="fill:url(#RadialGradID_3968) " d="M2.5,3.8Q3.15 4.5 3.3 5.35Q3.5 6.2 3.15 7.3L2.2 8.45Q1.65 8.6 0.95 7.85Q0.2 7.1 0.05 6.3Q-0.1 5.4 0.25 4.4Q0.65 3.35 1.2 3.2Q1.8 3.1 2.5 3.8" />
<radialGradient
id="RadialGradID_3969" gradientUnits="userSpaceOnUse" gradientTransform="matrix(0.000717163, 3.05176e-005, 9.15527e-005, 0.00276184, 7.85, 3.7)" spreadMethod ="pad" cx="0" cy="0" r="819.2" fx="0" fy="0" >
<stop  offset="0.313725"  style="stop-color:#FFFFFF;stop-opacity:0.431373" />
<stop  offset="1"  style="stop-color:#FFFFFF;stop-opacity:0" />
</radialGradient>
<path style="fill:url(#RadialGradID_3969) " d="M8.1,2.15L8.3 3.75L8.25 5.3L8.15 5.65L8.1 5.7L7.9 5.95L7.7 5.65L7.55 5.3L7.4 3.7L7.5 2.1Q7.6 1.45 7.8 1.5L8.1 2.15" />
<radialGradient
id="RadialGradID_3970" gradientUnits="userSpaceOnUse" gradientTransform="matrix(0.00189209, -1.52588e-005, 1.52588e-005, 0.00189209, 8.1, 9.3)" spreadMethod ="pad" cx="0" cy="0" r="819.2" fx="0" fy="0" >
<stop  offset="0"  style="stop-color:#F39B61;stop-opacity:1" />
<stop  offset="1"  style="stop-color:#F8BE98;stop-opacity:1" />
</radialGradient>
<path style="fill:url(#RadialGradID_3970) " d="M8.55,5.4L8.5 3.75Q8.45 2.65 9.05 0.85Q9.65 -0.95 9.2 1.05Q8.7 3.05 8.95 4.45L9.35 6.2L8.55 5.4" />
<radialGradient
id="RadialGradID_3971" gradientUnits="userSpaceOnUse" gradientTransform="matrix(0.000549316, 1.52588e-005, -1.52588e-005, 0.000549316, 7.8, 6.75)" spreadMethod ="pad" cx="0" cy="0" r="819.2" fx="0" fy="0" >
<stop  offset="0.313725"  style="stop-color:#FFFFFF;stop-opacity:0.431373" />
<stop  offset="1"  style="stop-color:#FFFFFF;stop-opacity:0" />
</radialGradient>
<path style="fill:url(#RadialGradID_3971) " d="M8.15,6.4L8.3 6.75L8.1 7.05L7.8 7.15L7.5 7L7.4 6.7L7.5 6.4L7.85 6.3L8.15 6.4" />
<radialGradient
id="RadialGradID_3972" gradientUnits="userSpaceOnUse" gradientTransform="matrix(0.00189209, -1.52588e-005, 1.52588e-005, 0.00189209, 7.95, 8.95)" spreadMethod ="pad" cx="0" cy="0" r="819.2" fx="0" fy="0" >
<stop  offset="0"  style="stop-color:#F39B61;stop-opacity:1" />
<stop  offset="1"  style="stop-color:#F8BE98;stop-opacity:1" />
</radialGradient>
<path style="fill:url(#RadialGradID_3972) " d="M8.55,5.4L9.35 6.2L9.6 7.7L9.2 8.1L8.85 8.35L8.35 8.7L7.5 8.85L6.25 8.25L6.1 8.15Q5.9 7.7 6.3 7.6Q6.65 7.45 7.05 7.6L7.8 7.7L8.4 7.35Q8.75 7.05 8.55 5.4M7.7,8.35L7.7 8.4L7.65 8.4L7.5 8.35L7.5 8.4L7.8 8.45L7.95 8.45L8.1 8.4L8.1 8.3L8.3 8.1L8.4 8.1L8.5 8.05L8.5 8.1L8.55 8.05L8.9 8.05L9 7.95L9 7.9L8.85 7.8L8.65 7.9L8.55 7.95L8.25 8.05L8.2 8.1L8.05 8.3L7.85 8.4L7.7 8.35M7.15,8.25L7.2 8.25L7.25 8.25L7.4 8.35L7.45 8.35L7.35 8.25L7 8L6.85 7.9L6.5 7.85L6.35 8L6.3 8L6.9 8.15L7.1 8.2L7.15 8.25" />
<path style="fill:#823909;fill-opacity:1" d="M8.5,8.05L8.4 8.1L8.3 8.1L8.1 8.3L8.1 8.4L7.95 8.45L7.8 8.45L7.5 8.4L7.5 8.35L7.65 8.4L7.7 8.4L7.85 8.4L8.05 8.3L8.2 8.1L8.25 8.05L8.55 7.95L8.65 7.9L8.85 7.8L9 7.9L9 7.95L8.9 8.05L8.55 8.05L8.5 8.05M7.4,8.35L7.45 8.35L7.4 8.35L7.25 8.25L7.2 8.25L7.15 8.25L6.95 8.15L6.9 8.15L6.3 8L6.35 8L6.5 7.85L6.85 7.9L7 8L7.35 8.25L7.4 8.35" />
<radialGradient
id="RadialGradID_3973" gradientUnits="userSpaceOnUse" gradientTransform="matrix(0.00198364, -0.000366211, 0.000671387, 0.00340271, 8.85, 3.7)" spreadMethod ="pad" cx="0" cy="0" r="819.2" fx="210473" fy="0" >
<stop  offset="0.337255"  style="stop-color:#F9C29F;stop-opacity:1" />
<stop  offset="1"  style="stop-color:#FEDEC1;stop-opacity:0" />
</radialGradient>
<path style="fill:url(#RadialGradID_3973) " d="M10.95,4.25Q10.95 4.8 9.85 5.25Q9.5 5.4 9.25 6.1L9.2 6.05L8.85 3.95L8.9 1.15L8.95 1.55L8.9 1.15Q9.65 3 10.45 3.35L10.85 3.6L10.95 4.25" />
</g>
</svg>
